polaris-icons/icons/newicons/DiamondAlertMajor.svg

<svg width="20" height="20" viewBox="0 0 20 20" fill="none" xmlns="http://www.w3.org/2000/svg">
<path d="M10 5.5C10.4142 5.50001 10.75 5.8358 10.75 6.25001L10.7499 10.5C10.7499 10.9142 10.4141 11.25 9.99993 11.25C9.58571 11.25 9.24993 10.9142 9.24994 10.5L9.25 6.24999C9.25001 5.83578 9.5858 5.49999 10 5.5Z" fill="black"/>
<path d="M11 13.5C11 14.0523 10.5523 14.5 10 14.5C9.44772 14.5 9 14.0523 9 13.5C9 12.9477 9.44772 12.5 10 12.5C10.5523 12.5 11 12.9477 11 13.5Z" fill="black"/>
<path fill-rule="evenodd" clip-rule="evenodd" d="M11.2374 2.17687C10.554 1.49345 9.44598 1.49345 8.76257 2.17687L2.17678 8.76266C1.49336 9.44608 1.49336 10.5541 2.17678 11.2375L8.76257 17.8233C9.44598 18.5067 10.554 18.5067 11.2374 17.8233L17.8232 11.2375C18.5066 10.5541 18.5066 9.44607 17.8232 8.76266L11.2374 2.17687ZM9.82323 3.23753C9.92086 3.1399 10.0791 3.1399 10.1768 3.23753L16.7626 9.82332C16.8602 9.92095 16.8602 10.0792 16.7626 10.1769L10.1768 16.7627C10.0791 16.8603 9.92086 16.8603 9.82323 16.7627L3.23744 10.1769C3.13981 10.0792 3.13981 9.92095 3.23744 9.82332L9.82323 3.23753Z" fill="black"/>
</svg>

<svg viewBox="0 0 20 20" fill="none" xmlns="http://www.w3.org/2000/svg"><path d="M10 5.5a.75.75 0 0 1 .75.75v4.25a.75.75 0 0 1-1.5 0v-4.25a.75.75 0 0 1 .75-.75Z" fill="#000"/><path d="M11 13.5a1 1 0 1 1-2 0 1 1 0 0 1 2 0Z" fill="#000"/><path fill-rule="evenodd" clip-rule="evenodd" d="M11.237 2.177a1.75 1.75 0 0 0-2.474 0l-6.586 6.586a1.75 1.75 0 0 0 0 2.475l6.586 6.585a1.75 1.75 0 0 0 2.474 0l6.586-6.585a1.75 1.75 0 0 0 0-2.475l-6.586-6.586Zm-1.414 1.06a.25.25 0 0 1 .354 0l6.586 6.586a.25.25 0 0 1 0 .354l-6.586 6.586a.25.25 0 0 1-.354 0l-6.586-6.586a.25.25 0 0 1 0-.354l6.586-6.585Z" fill="#000"/></svg>
